X: 1
T: Detective Conan Theme
N: Transposed
N: https://musescore.com/user/22574601/scores/4900820
M: 4/4
L: 1/8
R: 
Q:1/4=145
K: G
B>A- AG- GF E2|A>G- GF- FE D2|G>F- FE- EDCD|FGAB zA3|
B>A- AG- GF E2|A>G- GF- FE D2|G>F- FE- EDCD|FGAB z2 GF|
E2 B4 GE|F2 c2 B A3|GAGA B2 GF|E2 A2 GF z E/F/|
G2 E2 B2 G2|A2 e2 d2 cB/A/|B8|^DEFB z2 GF|
E2 B4 GE|F2 c2 B A3|GAGA B2 GF|E2 A2 GF z E/F/|
G2 E2 B2 G2|A2 e2 d2 cB/A/|B8|^DEFB z2 ^AB|
g2 e2 z^deg|f e2 d-d3 d/^d/|e2 GA zGAB-|B4 zGAB|
c2 BA z2 ABcd|e2 dc de z f-|ffff ff B,/^D/F/B/|B zz B z2 GF|
E2 B4 GE|F2 c2 B A3|GAGA BBcd|e2 g2 f ^d3 e-|
e8|

